X: 17625
T: Hole In My Pocket
R: jig
M: 6/8
K: Dminor
D|A,DD A>GF|BBd E3|FGA AGF|d3 A3|
dde f>ed|aga B3|d/c/d/e/f/e/ dAA|EDE D2:|
AGA D2 B|f2 d ^c3|d/e/d/e/A/E/ FDD|A,/B,/A,/B,/D/C/ (D3|D4)||

